; generated by Slic3r 1.3.0-dev on 2018-02-15 at 22:22:10

; external perimeters extrusion width = 0.55mm (4.37mm^3/s)
; perimeters extrusion width = 0.70mm (11.44mm^3/s)
; infill extrusion width = 0.62mm (13.45mm^3/s)
; solid infill extrusion width = 0.70mm (3.81mm^3/s)
; top infill extrusion width = 0.70mm (2.86mm^3/s)
; support material extrusion width = 0.55mm (8.74mm^3/s)

M107
M190 S65 ; set bed temperature and wait for it to be reached
M104 S205 ; set temperature
G28 ; home all axes
G1 Z5 F5000 ; lift nozzle

; Filament gcode

M109 S205 ; set temperature and wait for it to be reached
G21 ; set units to millimeters
G90 ; use absolute coordinates
M82 ; use absolute distances for extrusion
G92 E0
G1 Z0.350 F7800.000
G1 E-2.00000 F2400.00000
G92 E0
G1 X55.369 Y82.269 F7800.000
G1 E2.00000 F2400.00000
G1 F1800
G1 X58.110 Y80.652 E2.28942
G1 X96.944 Y69.641 E5.95976
G1 X97.904 Y69.403 E6.04972
G1 X98.996 Y69.194 E6.15079
G1 X99.535 Y69.134 E6.20007
G1 X102.403 Y68.942 E6.46148
G1 X133.298 Y68.492 E9.27106
G1 X133.859 Y68.508 E9.32207
G1 X136.326 Y68.681 E9.54695
G1 X137.774 Y68.947 E9.68084
G1 X139.406 Y69.439 E9.83581
G1 X142.272 Y71.194 E10.14141
G1 X142.882 Y71.829 E10.22151
G1 X144.333 Y74.164 E10.47148
G1 X144.973 Y75.933 E10.64250
G1 X145.368 Y78.186 E10.85051
G1 X145.365 Y81.184 E11.12306
G1 X144.115 Y124.410 E15.05524
G1 X143.653 Y126.656 E15.26378
G1 X142.453 Y128.610 E15.47232
G1 X141.472 Y129.516 E15.59374
G1 X139.620 Y130.906 E15.80430
G1 X137.575 Y131.945 E16.01285
G1 X135.404 Y132.229 E16.21195
G1 X102.262 Y131.041 E19.22748
G1 X100.069 Y130.936 E19.42708
G1 X99.461 Y130.880 E19.48261
G1 X98.869 Y130.788 E19.53713
G1 X97.013 Y130.360 E19.71028
G1 X57.977 Y119.755 E23.38846
G1 X57.283 Y119.539 E23.45459
G1 X54.802 Y118.089 E23.71590
G1 X54.252 Y117.579 E23.78409
G1 X52.866 Y115.752 E23.99263
G1 X52.370 Y114.478 E24.11688
G1 X50.778 Y108.692 E24.66261
G1 X50.551 Y107.303 E24.79059
G1 X50.295 Y102.713 E25.20856
G1 X50.286 Y102.270 E25.24888
G1 X50.388 Y93.173 E26.07614
G1 X50.486 Y92.111 E26.17310
G1 X50.667 Y91.071 E26.26904
G1 X50.890 Y90.170 E26.35350
G1 X52.048 Y86.586 E26.69593
G1 X53.704 Y83.903 E26.98264
G1 X55.315 Y82.322 E27.18792
G1 E25.18792 F2400.00000
G92 E0
G1 X95.672 Y101.103 F7800.000
G1 E2.00000 F2400.00000
G1 F1800
G1 X94.864 Y101.128 E2.07349
G1 X94.394 Y101.109 E2.11629
G1 X94.023 Y101.122 E2.15001
G1 X93.084 Y101.083 E2.23545
G1 X91.581 Y101.133 E2.37227
G1 X90.122 Y101.048 E2.50516
G1 X88.957 Y101.083 E2.61114
G1 X88.340 Y100.941 E2.66871
G1 X87.685 Y101.067 E2.72933
G1 X86.139 Y100.976 E2.87015
G1 X83.333 Y100.858 E3.12549
G1 X81.382 Y100.922 E3.30305
G1 X80.412 Y100.774 E3.39224
G1 X77.519 Y101.111 E3.65709
G1 X75.058 Y100.724 E3.88363
G1 X72.192 Y101.130 E4.14681
G1 X69.739 Y100.948 E4.37051
G1 X68.943 Y101.010 E4.44303
G1 X67.151 Y100.953 E4.60610
G1 X65.617 Y101.069 E4.74597
G1 X64.878 Y101.026 E4.81328
G1 X64.170 Y101.097 E4.87794
G1 X63.091 Y101.019 E4.97633
G1 X62.389 Y101.077 E5.04041
G1 X62.305 Y100.953 E5.05404
G1 X62.117 Y100.427 E5.10479
G1 X62.067 Y100.122 E5.13289
G1 X62.110 Y99.398 E5.19883
G1 X62.251 Y99.025 E5.23509
G1 X62.313 Y98.927 E5.24561
G1 X62.558 Y98.907 E5.26796
G1 X63.026 Y98.968 E5.31090
G1 X63.622 Y98.899 E5.36549
G1 X64.751 Y98.980 E5.46843
G1 X66.785 Y98.890 E5.65352
G1 X66.988 Y98.902 E5.67198
G1 X69.615 Y98.865 E5.91088
G1 X72.380 Y99.522 E6.16931
G1 X74.324 Y99.046 E6.35130
G1 X75.206 Y99.172 E6.43234
G1 X77.805 Y99.489 E6.67040
G1 X79.035 Y99.540 E6.78229
G1 X82.697 Y99.215 E7.11656
G1 X83.538 Y99.090 E7.19392
G1 X86.897 Y98.897 E7.49982
G1 X87.923 Y98.993 E7.59359
G1 X88.636 Y98.985 E7.65835
G1 X90.609 Y98.881 E7.83804
G1 X91.721 Y98.952 E7.93936
G1 X92.471 Y98.911 E8.00768
G1 X93.321 Y98.910 E8.08495
G1 X94.382 Y98.865 E8.18153
G1 X95.654 Y98.906 E8.29721
G1 X95.832 Y99.253 E8.33276
G1 X95.868 Y99.895 E8.39119
G1 X95.819 Y100.819 E8.47531
G1 X95.710 Y101.038 E8.49757
G1 X96.010 Y101.747 F7800.000
G1 F1800
G1 X95.553 Y101.722 E8.53919
G1 X94.866 Y101.753 E8.60176
G1 X94.392 Y101.734 E8.64486
G1 X94.021 Y101.747 E8.67862
G1 X93.082 Y101.708 E8.76410
G1 X91.573 Y101.759 E8.90140
G1 X90.113 Y101.673 E9.03440
G1 X88.895 Y101.710 E9.14518
G1 X88.328 Y101.579 E9.19805
G1 X87.727 Y101.695 E9.25378
G1 X86.108 Y101.600 E9.40124
G1 X83.330 Y101.484 E9.65398
G1 X81.344 Y101.548 E9.83467
G1 X80.401 Y101.404 E9.92146
G1 X77.506 Y101.741 E10.18644
G1 X75.053 Y101.356 E10.41226
G1 X72.213 Y101.758 E10.67308
G1 X69.740 Y101.575 E10.89860
G1 X68.958 Y101.635 E10.96991
G1 X67.165 Y101.579 E11.13302
G1 X65.622 Y101.695 E11.27366
G1 X64.891 Y101.653 E11.34027
G1 X64.179 Y101.724 E11.40534
G1 X63.095 Y101.645 E11.50419
G1 X62.194 Y101.720 E11.58639
G1 X62.058 Y101.705 E11.59885
G1 X61.743 Y101.236 E11.65019
G1 X61.509 Y100.584 E11.71319
G1 X61.440 Y100.154 E11.75281
G1 X61.492 Y99.267 E11.83366
G1 X61.689 Y98.746 E11.88423
G1 X61.949 Y98.331 E11.92880
G1 X62.572 Y98.278 E11.98564
G1 X63.031 Y98.338 E12.02770
G1 X63.609 Y98.271 E12.08063
G1 X64.760 Y98.354 E12.18558
G1 X66.789 Y98.264 E12.37029
G1 X67.002 Y98.277 E12.38962
G1 X69.684 Y98.239 E12.63351
G1 X72.378 Y98.879 E12.88531
G1 X74.293 Y98.411 E13.06456
G1 X75.288 Y98.552 E13.15599
G1 X77.856 Y98.866 E13.39122
G1 X79.020 Y98.914 E13.49714
G1 X82.623 Y98.594 E13.82605
G1 X83.474 Y98.468 E13.90429
G1 X86.908 Y98.271 E14.21703
G1 X87.949 Y98.368 E14.31211
G1 X88.616 Y98.360 E14.37273
G1 X90.612 Y98.255 E14.55455
G1 X91.724 Y98.326 E14.65581
G1 X92.454 Y98.286 E14.72229
G1 X93.308 Y98.285 E14.79992
G1 X94.382 Y98.240 E14.89770
G1 X95.519 Y98.286 E15.00121
G1 X95.987 Y98.264 E15.04376
G1 X96.133 Y98.471 E15.06688
G1 X96.449 Y99.086 E15.12971
G1 X96.493 Y99.890 E15.20293
G1 X96.461 Y100.696 E15.27624
G1 X96.429 Y100.989 E15.30311
G1 X96.301 Y101.264 E15.33060
G1 X96.053 Y101.685 E15.37510
G1 X96.337 Y102.356 F7800.000
G1 F1800
G1 X95.997 Y102.372 E15.40610
G1 X95.550 Y102.348 E15.44675
G1 X94.868 Y102.379 E15.50889
G1 X94.391 Y102.360 E15.55230
G1 X94.019 Y102.373 E15.58610
G1 X93.079 Y102.333 E15.67161
G1 X91.565 Y102.384 E15.80939
G1 X90.104 Y102.299 E15.94250
G1 X88.833 Y102.337 E16.05809
G1 X88.317 Y102.218 E16.10626
G1 X87.768 Y102.324 E16.15709
G1 X86.076 Y102.224 E16.31119
G1 X83.328 Y102.109 E16.56134
G1 X81.307 Y102.175 E16.74515
G1 X80.390 Y102.035 E16.82954
G1 X77.494 Y102.372 E17.09465
G1 X75.048 Y101.988 E17.31975
G1 X72.234 Y102.386 E17.57821
G1 X69.741 Y102.202 E17.80555
G1 X68.972 Y102.261 E17.87565
G1 X67.178 Y102.205 E18.03881
G1 X65.628 Y102.321 E18.18020
G1 X64.904 Y102.279 E18.24613
G1 X64.188 Y102.351 E18.31160
G1 X63.098 Y102.272 E18.41092
G1 X62.185 Y102.348 E18.49419
G1 X61.700 Y102.295 E18.53859
G1 X61.181 Y101.520 E18.62337
G1 X60.902 Y100.741 E18.69863
G1 X60.812 Y100.186 E18.74977
G1 X60.874 Y99.135 E18.84553
G1 X61.126 Y98.467 E18.91040
G1 X61.442 Y97.963 E18.96448
G1 X61.663 Y97.728 E18.99384
G1 X62.586 Y97.650 E19.07807
G1 X63.035 Y97.709 E19.11925
G1 X63.595 Y97.644 E19.17052
G1 X64.769 Y97.728 E19.27748
G1 X66.794 Y97.639 E19.46181
G1 X67.015 Y97.652 E19.48200
G1 X69.752 Y97.613 E19.73090
G1 X72.376 Y98.236 E19.97606
G1 X74.261 Y97.775 E20.15257
G1 X75.370 Y97.933 E20.25439
G1 X77.907 Y98.242 E20.48678
G1 X79.005 Y98.288 E20.58673
G1 X82.550 Y97.973 E20.91029
G1 X83.410 Y97.846 E20.98941
G1 X86.919 Y97.644 E21.30899
G1 X87.975 Y97.743 E21.40538
G1 X88.596 Y97.736 E21.46186
G1 X90.616 Y97.629 E21.64581
G1 X91.727 Y97.700 E21.74700
G1 X92.436 Y97.661 E21.81164
G1 X93.294 Y97.660 E21.88964
G1 X94.382 Y97.614 E21.98862
G1 X95.517 Y97.661 E22.09193
G1 X96.176 Y97.629 E22.15190
G1 X96.310 Y97.638 E22.16414
G1 X96.669 Y98.147 E22.22077
G1 X97.066 Y98.919 E22.29969
G1 X97.119 Y99.885 E22.38769
G1 X97.085 Y100.743 E22.46575
G1 X97.038 Y101.160 E22.50390
G1 X96.856 Y101.553 E22.54329
G1 X96.604 Y101.985 E22.58875
G1 X96.387 Y102.300 E22.62355
G1 X96.076 Y102.136 F7800.000
G1 E20.62355 F2400.00000
G92 E0
G1 X94.967 Y100.735 F7800.000
G1 E2.00000 F2400.00000
G1 F1800
G1 X95.453 Y100.249 E2.06425
G1 X95.485 Y99.653 E2.12002
G1 X95.467 Y99.327 E2.15050
G1 X94.064 Y100.730 E2.33586
G1 X93.782 Y100.740 E2.36223
G1 X93.172 Y100.714 E2.41933
G1 X94.638 Y99.248 E2.61309
G1 X93.691 Y99.287 E2.70165
G1 X92.258 Y100.720 E2.89107
G1 X91.320 Y100.750 E2.97870
G1 X92.777 Y99.293 E3.17121
G1 X91.961 Y99.335 E3.24753
G1 X91.835 Y99.327 E3.25939
G1 X90.462 Y100.699 E3.44074
G1 X89.888 Y100.666 E3.49453
G1 X89.579 Y100.675 E3.52341
G1 X90.981 Y99.273 E3.70870
G1 X90.849 Y99.264 E3.72109
G1 X90.039 Y99.307 E3.79687
G1 X88.671 Y100.675 E3.97763
G1 X88.108 Y100.545 E4.03158
G1 X87.841 Y100.597 E4.05704
G1 X89.080 Y99.357 E4.22086
G1 X88.154 Y99.375 E4.30741
G1 X86.878 Y100.651 E4.47601
G1 X86.021 Y100.601 E4.55628
G1 X87.322 Y99.299 E4.72829
G1 X87.129 Y99.281 E4.74647
G1 X86.390 Y99.323 E4.81561
G1 X85.151 Y100.562 E4.97936
G1 X84.279 Y100.526 E5.06087
G1 X85.426 Y99.379 E5.21246
G1 X84.463 Y99.434 E5.30263
G1 X83.408 Y100.489 E5.44207
G1 X83.093 Y100.476 E5.47147
G1 X82.493 Y100.496 E5.52757
G1 X83.463 Y99.526 E5.65567
G1 X83.013 Y99.593 E5.69813
G1 X82.437 Y99.644 E5.75219
G1 X81.951 Y100.130 E5.81642
G1 X81.561 Y100.129 F7800.000
G1 F1800
G1 X81.017 Y100.112 E5.88087
G1 F1800
G1 X80.473 Y100.095 E5.93925
G1 F1800
G1 X79.026 Y100.235 E6.07901
G1 F1800
G1 X78.106 Y100.270 E6.17689
G1 X77.245 Y100.716 F7800.000
G1 F1800
G1 X77.731 Y100.230 E6.24212
G1 X77.716 Y99.835 E6.27967
G1 X77.260 Y99.779 E6.32327
G1 X76.448 Y100.591 E6.43223
G1 X75.651 Y100.466 E6.50877
G1 X76.438 Y99.679 E6.61440
G1 X75.616 Y99.579 E6.69295
G1 X74.854 Y100.341 E6.79525
G1 X73.792 Y100.481 E6.89689
G1 X74.805 Y99.468 E7.03279
G1 X74.599 Y99.439 E7.05253
G1 X73.690 Y99.661 E7.14131
G1 X72.718 Y100.633 E7.27172
G1 X71.928 Y100.745 E7.34739
G1 X71.701 Y100.728 E7.36902
G1 X72.530 Y99.899 E7.48029
G1 X71.785 Y99.722 E7.55295
G1 X70.842 Y100.664 E7.67942
G1 X69.984 Y100.601 E7.76109
G1 X71.040 Y99.545 E7.90277
G1 X70.294 Y99.368 E7.97543
G1 X69.065 Y100.598 E8.14044
G1 X68.686 Y100.627 E8.17647
G1 X68.131 Y100.610 E8.22917
G1 X69.488 Y99.252 E8.41130
G1 X68.553 Y99.265 E8.50004
G1 X67.237 Y100.582 E8.67665
G1 X66.894 Y100.571 E8.70916
G1 X66.279 Y100.617 E8.76769
G1 X67.618 Y99.278 E8.94731
G1 X66.687 Y99.288 E9.03568
G1 X65.293 Y100.681 E9.22267
G1 X64.622 Y100.642 E9.28643
G1 X64.386 Y100.666 E9.30891
G1 X65.722 Y99.330 E9.48811
G1 X64.986 Y99.363 E9.55800
G1 X64.782 Y99.348 E9.57742
G1 X63.451 Y100.679 E9.75594
G1 X62.845 Y100.635 E9.81363
G1 X62.548 Y100.660 E9.84186
G1 X63.921 Y99.286 E10.02612
G1 X63.264 Y99.354 E10.08880
G1 X62.970 Y99.316 E10.11696
G1 X62.484 Y99.802 E10.18218
G1 Z0.350 F7800.000
G1 E8.18218 F2400.00000
G92 E0
G1 X56.910 Y102.344 F7800.000
G1 E2.00000 F2400.00000
G1 F1800
G1 X57.271 Y104.223 E2.13220
G1 X57.388 Y104.567 E2.15732
G1 X57.388 Y95.333 E2.79542
G1 X57.865 Y94.245 E2.87754
G1 X57.865 Y105.732 E3.67132
G1 X58.343 Y106.665 E3.74377
G1 X58.343 Y102.302 E4.04530
G1 X58.425 Y102.738 E4.07596
G1 X58.820 Y104.069 E4.17195
G1 X58.820 Y107.394 E4.40167
G1 X59.166 Y107.914 E4.44484
G1 X59.298 Y107.985 E4.45518
G1 X59.298 Y105.189 E4.64835
G1 X59.329 Y105.255 E4.65336
G1 X59.776 Y105.594 E4.69212
G1 X59.776 Y108.243 E4.87516
G1 X59.937 Y108.330 E4.88779
G1 X60.253 Y108.448 E4.91115
G1 X60.253 Y105.956 E5.08333
G1 X60.731 Y106.221 E5.12110
G1 X60.731 Y108.626 E5.28724
G1 X61.208 Y108.804 E5.32246
G1 X61.208 Y106.482 E5.48288
G1 X61.285 Y106.524 E5.48890
G1 X61.686 Y106.540 E5.51664
G1 X61.686 Y108.836 E5.67532
G1 X62.164 Y108.854 E5.70835
G1 X62.164 Y106.558 E5.86704
G1 X62.641 Y106.576 E5.90007
G1 X62.641 Y108.873 E6.05877
G1 X63.119 Y108.892 E6.09180
G1 X63.119 Y106.591 E6.25081
G1 X63.596 Y106.585 E6.28381
G1 X63.596 Y108.883 E6.44262
G1 X64.074 Y108.868 E6.47564
G1 X64.074 Y106.566 E6.63471
G1 X64.552 Y106.547 E6.66774
G1 X64.552 Y108.853 E6.82706
G1 X65.029 Y108.837 E6.86008
G1 X65.029 Y106.528 E7.01965
G1 X65.507 Y106.525 E7.05265
G1 X65.507 Y108.836 E7.21230
G1 X65.984 Y108.851 E7.24532
G1 X65.984 Y106.542 E7.40489
G1 X66.462 Y106.558 E7.43791
G1 X66.462 Y108.866 E7.59738
G1 X66.940 Y108.881 E7.63040
G1 X66.940 Y106.575 E7.78979
G1 X67.417 Y106.591 E7.82282
G1 X67.417 Y108.873 E7.98049
G1 X67.778 Y108.884 E8.00541
G1 X67.895 Y108.880 E8.01351
G1 X67.895 Y106.582 E8.17227
G1 X68.372 Y106.559 E8.20532
G1 X68.372 Y108.864 E8.36458
G1 X68.850 Y108.848 E8.39761
G1 X68.850 Y106.535 E8.55738
G1 X69.327 Y106.512 E8.59042
G1 X69.327 Y108.832 E8.75069
G1 X69.805 Y108.836 E8.78370
G1 X69.805 Y106.489 E8.94589
G1 X70.283 Y106.495 E8.97890
G1 X70.283 Y108.857 E9.14213
G1 X70.760 Y108.869 E9.17514
G1 X70.760 Y106.520 E9.33751
G1 X71.238 Y106.545 E9.37055
G1 X71.238 Y108.877 E9.53175
G1 X71.715 Y108.885 E9.56476
G1 X71.715 Y106.549 E9.72618
G1 X72.193 Y106.532 E9.75921
G1 X72.193 Y108.879 E9.92136
G1 X72.671 Y108.877 E9.95436
G1 X72.671 Y106.549 E10.11523
G1 X73.148 Y106.567 E10.14825
G1 X73.148 Y108.886 E10.30849
G1 X73.348 Y108.890 E10.32234
G1 X73.626 Y108.883 E10.34150
G1 X73.626 Y106.577 E10.50087
G1 X74.103 Y106.552 E10.53392
G1 X74.103 Y108.873 E10.69427
G1 X74.581 Y108.862 E10.72728
G1 X74.581 Y106.528 E10.88862
G1 X75.059 Y106.544 E10.92164
G1 X75.059 Y108.870 E11.08241
G1 X75.475 Y108.885 E11.11123
G1 X75.536 Y108.884 E11.11544
G1 X75.536 Y106.571 E11.27526
G1 X76.014 Y106.576 E11.30827
G1 X76.014 Y108.871 E11.46688
G1 X76.491 Y108.859 E11.49990
G1 X76.491 Y106.560 E11.65877
G1 X76.969 Y106.544 E11.69179
G1 X76.969 Y108.866 E11.85223
G1 X77.446 Y108.873 E11.88523
G1 X77.446 Y106.532 E12.04698
G1 X77.924 Y106.524 E12.07999
G1 X77.924 Y108.880 E12.24279
G1 X78.285 Y108.886 E12.26770
G1 X78.402 Y108.881 E12.27580
G1 X78.402 Y106.516 E12.43924
G1 X78.879 Y106.508 E12.47225
G1 X78.879 Y108.885 E12.63649
G1 X79.357 Y108.885 E12.66950
G1 X79.357 Y106.500 E12.83430
G1 X79.834 Y106.496 E12.86731
G1 X79.834 Y108.885 E13.03236
G1 X80.312 Y108.885 E13.06537
G1 X80.312 Y106.504 E13.22991
G1 X80.790 Y106.529 E13.26296
G1 X80.790 Y108.885 E13.42575
G1 X81.267 Y108.885 E13.45875
G1 X81.267 Y106.554 E13.61982
G1 X81.745 Y106.545 E13.65283
G1 X81.745 Y108.864 E13.81310
G1 X82.222 Y108.842 E13.84613
G1 X82.222 Y106.519 E14.00670
G1 X82.700 Y106.493 E14.03975
G1 X82.700 Y108.821 E14.20062
G1 X83.178 Y108.812 E14.23363
G1 X83.178 Y106.512 E14.39256
G1 X83.655 Y106.538 E14.42561
G1 X83.655 Y108.835 E14.58433
G1 X84.133 Y108.858 E14.61737
G1 X84.133 Y106.565 E14.77587
G1 X84.610 Y106.587 E14.80891
G1 X84.610 Y108.881 E14.96748
G1 X84.656 Y108.884 E14.97061
G1 X85.088 Y108.873 E15.00050
G1 X85.088 Y106.572 E15.15949
G1 X85.566 Y106.569 E15.19250
G1 X85.566 Y108.866 E15.35120
G1 X86.043 Y108.859 E15.38420
G1 X86.043 Y106.552 E15.54364
G1 X86.521 Y106.534 E15.57666
G1 X86.521 Y108.852 E15.73683
G1 X86.998 Y108.845 E15.76984
G1 X86.998 Y106.516 E15.93074
G1 X87.476 Y106.499 E15.96376
G1 X87.476 Y108.849 E16.12622
G1 X87.953 Y108.857 E16.15922
G1 X87.953 Y106.517 E16.32094
G1 X88.431 Y106.542 E16.35399
G1 X88.431 Y108.865 E16.51454
G1 X88.909 Y108.873 E16.54754
G1 X88.909 Y106.566 E16.70691
G1 X89.386 Y106.574 E16.73992
G1 X89.386 Y108.880 E16.89929
G1 X89.864 Y108.888 E16.93229
G1 X89.864 Y106.573 E17.09222
G1 X90.341 Y106.585 E17.12523
G1 X90.341 Y108.892 E17.28463
G1 X90.819 Y108.891 E17.31764
G1 X90.819 Y106.577 E17.47752
G1 X91.297 Y106.568 E17.51053
G1 X91.297 Y108.886 E17.67076
G1 X91.774 Y108.885 E17.70376
G1 X91.774 Y106.559 E17.86445
G1 X92.252 Y106.571 E17.89746
G1 X92.252 Y108.888 E18.05758
G1 X92.729 Y108.883 E18.09059
G1 X92.729 Y106.580 E18.24974
G1 X93.207 Y106.578 E18.28274
G1 X93.207 Y108.878 E18.44165
G1 X93.685 Y108.884 E18.47466
G1 X93.685 Y106.585 E18.63352
G1 X94.162 Y106.592 E18.66652
G1 X94.162 Y108.891 E18.82538
G1 X94.640 Y108.891 E18.85838
G1 X94.640 Y106.589 E19.01746
G1 X95.117 Y106.588 E19.05046
G1 X95.117 Y108.884 E19.20907
G1 X95.595 Y108.877 E19.24208
G1 X95.595 Y106.578 E19.40096
G1 X96.072 Y106.591 E19.43398
G1 X96.072 Y108.886 E19.59258
G1 X96.550 Y108.886 E19.62558
G1 X96.550 Y106.582 E19.78486
G1 X96.708 Y106.578 E19.79574
G1 X97.028 Y106.405 E19.82089
G1 X97.028 Y108.774 E19.98460
